**kern
*staff1
*I"Piano
*clefG2
*k[b-e-a-d-]
*A-:
*M4/4
4r
2r
=1 	=1
2r
4g-/
4gg-\
=2 	=2
2.cc\
4r
=3 	=3
1r
=4 	=4
2r
4en/
4een\
=5 	=5
2.b-\
4r
=6 	=6
1r
=7 	=7
2r
8r
8c/
12d-/L
12f/
12a-/J
=8 	=8
!!linebreak:original
8ee-\
4dd-\
8cc\
8b-/L
8a-/
8g/
8f/J
=9 	=9
8ff#\L
8een\
8bn\
8g\J
4an/
8g/L
8a-/J
=10 	=10
1r
=11 	=11
1r
=12|| 	=12||
8e-/L
8a-/
8en/
8f/J
8an/L
8b-/
8f#/
8g/J
=13 	=13
!!linebreak:original
8bn/L
8cc/
8g#/
8an/J
8cc#\L
8b\
8ccn\
[8ee-\J
=14 	=14
8ee-\]
8r
4r
2r
=15 	=15
2r
4r
8r
[8ff\
=16 	=16
4ff\]
8ee-\L
8dd-\J
8cc/L
8b-/
8an/
8g/J
=17 	=17
!!linebreak:original
8a-/L
8en/
8f/
8a-/J
8cc\L
8ee-\
8dd-\
8bn\J
=18 	=18
4cc\
8g/L
8b-/J
8an/
4f#/
8r
=19 	=19
8r
8f/
24a-/LL
24b-/
24a-/J
8f#/J
8g/
4en/
8r
=20 	=20
!!linebreak:original
8e-/L
8a-/
8en/
8f/J
8an/L
8b-/
8f#/
8g/J
=21 	=21
8bn/L
8cc/
8g#/
8an/J
8cc#\L
8b\
8ccn\
[8ee-\J
=22 	=22
8ee-\]
8r
4r
2r
=23 	=23
2r
4r
8r
[8ff\
=24 	=24
!!linebreak:original
4ff\]
8ee-\L
8dd-\J
8cc/L
8b-/
8an/
8g/J
=25 	=25
8a-/L
8en/
8f/
8a-/J
8cc\L
8ee-\
8dd-\
8bn\J
=26 	=26
4cc\
8g/L
8b-/J
24an/LL
24b-/
24a/J
8g/J
8a-\L
8ee-\J
=27 	=27
1r
=28 	=28
!!linebreak:original
4gg\
8gg\L
[8ee-\J
8ee-\]
8r
4r
=29 	=29
8ff\
4ee-\
8g/
4ddn\
4r
=30 	=30
4een\
8ee\L
[8cc#\J
8cc#\]
8r
4r
=31 	=31
8ee-\
4dd-\
8f/
4cc\
8r
8b-\
=32 	=32
!!linebreak:original
8r
8e-/L
8f/
8a-/J
8b-\L
8cc\
8dd-\
8ee-\J
=33 	=33
8cc\L
8a-\J
8r
[8ff\
8ff\]
4ff\
[8ff\
=34 	=34
4ff\]
24ee-\LL
24ff\
24ee-\J
8dd-\J
8cc\
4b-\
[8ff#\
=35 	=35
8ff#\]
4een\
8r
2r
=36 	=36
!!pagebreak:original
8e-/L
8a-/
8en/
8f/J
8an/L
8b-/
8f#/
8g/J
=37 	=37
8bn/L
8cc/
8g#/
8an/J
8cc#\L
8b\
8ccn\
[8ee-\J
=38 	=38
8ee-\]
8r
4r
2r
=39 	=39
2r
4r
8r
[8ff\
=40 	=40
!!linebreak:original
4ff\]
8ee-\L
8dd-\J
8cc/L
8b-/
8an/
8g/J
=41 	=41
8a-/L
8en/
8f/
8a-/J
8cc\L
8ee-\
8dd-\
8bn\J
=42 	=42
4cc\
8g/L
8b-/J
24an/LL
24b-/
24a/J
8g/J
8a-\L
8ee-\J
=43 	=43
1r
=44|| 	=44||
!!linebreak:original
4cc\
8ee-\L
8ee-\J
8dd-\
4bn\
[8cc\
=45 	=45
8cc\]
4ee-\
8r
4dd-\
8cc\L
[8a-\J
=46 	=46
8a-/]
4a-/
8r
8f/
4e-/
[8a-/
=47 	=47
8a-/]
4f/
8r
2r
=48 	=48
4cc\
4cc\
8ee-\
4a-/
[8bn\
=49 	=49
!!linebreak:original
4b\]
8cc\L
8dd-\J
8ddn\L
8ee-\J
4een\
=50 	=50
8ee-\L
8cc\J
4a-/
4dd-\
8cc\L
[8a-\J
=51 	=51
8a-/]
8r
4r
2r
=52 	=52
2r
8ee-\L
8ff\
8gg\
8aa-\J
=53 	=53
!!linebreak:original
8bb-\L
8aa-\
8gg\
8ff\J
8ee-\L
8dd-\
8cc\
8b-\J
=54 	=54
8a-/L
8g/
8b-/
8g/J
8a-/L
8f/
8e-/
(8d-/J
=55 	=55
12d-/L)
12f/
12a-/J
8cc\L
[8bn\J
8b\]
4g/
8g/
=56 	=56
!!linebreak:original
8b-/L
8a-/J
4r
8g-/L
8a-/
8g-/
[8f/J
=57 	=57
8f/L]
8a-/J
8r
8f/
8a-\L
8b-\
8cc\
8dd-\J
=58 	=58
8ddn\L
8ee-\J
4een\
4ee-\
8g/L
[8a-/J
=59 	=59
8a-/]
8r
4r
4r
4aa-\
=60 	=60
!!linebreak:original
4.bbn\
8aan\
4.bb-\
[8bb-\
=61 	=61
8bb-\]
4aan\
8cc\
8ee-\L
8gg-\
8ff\
8ee-\J
=62 	=62
8aan\L
8gg\J
4aa-\
8ddn\L
8gg-\
8een\
8dd\J
=63 	=63
8aa-\L
8ff#\J
4gg\
2r
=64 	=64
!!linebreak:original
2r
8ccc\L
8bb-\
8aa-\
8gg-\J
=65 	=65
8ff\L
8ee-\
8dd-\
8cc\J
8b-\
4a-/
8en/
=66 	=66
8e-/L
8c/
8d-/
8f/J
8a-\L
8cc\
8b-\
8a-\J
=67 	=67
!!pagebreak:original
8r
24g\LL
24b-\
24dd-\JJ
8ff\L
8een\J
8ee-\L
8dd-\J
4cc\
=68 	=68
8g/L
8b-/J
4an/
4a-/
4r
=69 	=69
4r
8a-/L
8bn/J
8cc/L
8a-/
8f/
8dn/J
=70 	=70
8e-/
4b-\
8g/
8a-/
4f/
8r
=71 	=71
!!linebreak:original
2r
4r
8r
(16ee-\LL
16aa-\JJ)
=72 	=72
8bb-\L
16aa-\L
16aa-\JJ
8bb-\L
16aa-\L
16aa-\JJ
8bb-\L
16aa-\L
16aa-\JJ
8bb-\L
16aa-\L
16aa-\JJ
=73 	=73
!!linebreak:original
8bb-\L
16aa-\L
16aa-\JJ
8bb-\L
16aa-\L
16aa-\JJ
8bb-\L
16aa-\L
16aa-\JJ
8bb-\L
16aa-\L
16aa-\JJ
=74 	=74
8bb-\L
8aa-\
8gg\
8ff\J
8ee-\L
8dd-\
8cc\
8b-\J
=75 	=75
8an/L
8g/
8b-/
8g/J
8a-/L
8f/J
4r
=76 	=76
!!linebreak:original
1r
=77 	=77
1r
=78|| 	=78||
8e-/L
8a-/
8en/
8f/J
8an/L
8b-/
8f#/
8g/J
=79 	=79
8bn/L
8cc/
8g#/
8an/J
8dd-\L
8b\
8cc\
[8ee-\J
=80 	=80
8ee-\]
8r
4r
2r
=81 	=81
!!linebreak:original
2r
4r
8r
[8ff\
=82 	=82
4ff\]
8ee-\L
8dd-\J
8cc/L
8b-/
8an/
8g/J
=83 	=83
8a-/L
8en/
8f/
8a-/J
8cc\L
8ee-\
8dd-\
8bn\J
=84 	=84
4cc\
8g/L
8b-/J
8an/
4f#/
8r
=85 	=85
!!linebreak:original
8r
8f/
24a-/LL
24b-/
24a-/J
8f#/J
8g/
4en/
8r
=86 	=86
8e-/L
8a-/
8en/
8f/J
8an/L
8b-/
8f#/
8g/J
=87 	=87
8bn/L
8cc/
8g#/
8an/J
8dd-\L
8b\
8cc\
[8ee-\J
=88 	=88
!!linebreak:original
8ee-\]
8r
4r
2r
=89 	=89
2r
4r
8r
[8ff\
=90 	=90
4ff\]
8ee-\L
8dd-\J
8cc/L
8b-/
8an/
8g/J
=91 	=91
8a-/L
8en/
8f/
8a-/J
8cc\L
8ee-\
8dd-\
8bn\J
=92 	=92
!!linebreak:original
4cc\
8g/L
8b-/J
24an/LL
24b-/
24a/J
8g/J
8a-\L
8ee-\J
=93 	=93
1r
== 	==
*-
